symbols/web/shopping_cart/materialsymbolssharp/shopping_cart_wght100gradN25fill1_20px.svg

<svg xmlns="http://www.w3.org/2000/svg" height="20" width="20"><path d="M6.25 17.271q-.479 0-.802-.323-.323-.323-.323-.823 0-.479.323-.802Q5.771 15 6.25 15q.479 0 .812.323.334.323.334.823 0 .479-.334.802-.333.323-.812.323Zm7.542 0q-.48 0-.802-.323-.323-.323-.323-.823 0-.479.323-.802.322-.323.822-.323.48 0 .803.323.323.323.323.823 0 .479-.323.802-.323.323-.823.323Zm-9.5-4.104L6.479 9.25 3.458 2.896H2.021v-.604h1.833l.792 1.625h11.937l-3.271 5.979H6.833l-1.437 2.666h9.542v.605Z"/></svg>

<svg xmlns="http://www.w3.org/2000/svg" height="20" width="20"><path d="M6.25 17.271Q5.771 17.271 5.448 16.948Q5.125 16.625 5.125 16.125Q5.125 15.646 5.448 15.323Q5.771 15 6.25 15Q6.729 15 7.062 15.323Q7.396 15.646 7.396 16.146Q7.396 16.625 7.062 16.948Q6.729 17.271 6.25 17.271ZM13.792 17.271Q13.312 17.271 12.99 16.948Q12.667 16.625 12.667 16.125Q12.667 15.646 12.99 15.323Q13.312 15 13.812 15Q14.292 15 14.615 15.323Q14.938 15.646 14.938 16.146Q14.938 16.625 14.615 16.948Q14.292 17.271 13.792 17.271ZM4.292 13.167 6.479 9.25 3.458 2.896H2.021V2.292H3.854L4.646 3.917H16.583L13.312 9.896H6.833L5.396 12.562H14.938V13.167Z"/></svg>
